brand-assets/voidzero/voidzero-logo-light.svg

<svg width="283" height="47" viewBox="0 0 283 47" fill="none" xmlns="http://www.w3.org/2000/svg">
<path d="M85.2402 0C104.305 0 114.321 8.01378 114.321 23.3945C114.321 38.775 104.304 46.7881 85.2402 46.7881C66.1762 46.788 56.2238 38.7749 56.2236 23.3945C56.2236 8.01386 66.176 8.18674e-05 85.2402 0ZM218.406 0C209.21 13.1662 209.156 33.5745 218.406 46.7881H212.191C202.939 33.5745 202.993 13.1662 212.191 0H218.406ZM275.382 0C284.577 13.1661 284.631 33.5746 275.382 46.7881H269.167C278.419 33.5746 278.365 13.1661 269.167 0H275.382ZM243.786 0.0644531C256.672 0.064684 267.116 10.5104 267.116 23.3945C267.116 36.2787 256.67 46.7244 243.786 46.7246C230.902 46.7244 220.456 36.2787 220.456 23.3945C220.456 10.5104 230.902 0.0646767 243.786 0.0644531ZM28.5 33.3467L40.2617 0.775391H56.3535L38.5166 46.0127H17.8369L0 0.775391H16.5439L28.5 33.3467ZM135.777 46.0127H120.268V0.775391H135.777V46.0127ZM172.075 0.775391C187.779 0.775391 196.763 7.88453 196.763 23.3945C196.763 38.9043 187.714 46.0127 172.011 46.0127H143.641V0.775391H172.075ZM257.998 13.5947C257.653 12.8218 256.617 12.6776 256.083 13.334L235.902 38.084C235.42 38.6785 235.652 39.5682 236.363 39.8525C238.453 40.6882 240.926 41.1025 243.786 41.1025C254.374 41.1024 259.729 35.4148 259.729 23.3945C259.729 19.446 259.15 16.1883 257.998 13.5947ZM85.2402 11.1152C76.2576 11.1153 72.0566 14.9934 72.0566 23.3945C72.0568 31.7954 76.2577 35.6083 85.2402 35.6084C94.2229 35.6084 98.4237 31.8601 98.4238 23.3945C98.4238 14.9287 94.2231 11.1152 85.2402 11.1152ZM159.15 35.0273H169.878C177.245 35.0273 180.864 31.8601 180.864 23.3945C180.864 14.9287 177.245 11.7617 169.878 11.7617H159.15V35.0273ZM243.786 5.75195C233.138 5.7521 227.843 11.4389 227.843 23.3945C227.843 27.3581 228.421 30.6325 229.575 33.2412C229.918 34.0165 230.956 34.1609 231.49 33.5039L251.635 8.75293C252.119 8.15848 251.884 7.26575 251.171 6.9834C249.088 6.15848 246.625 5.75199 243.786 5.75195Z" fill="white"/>
</svg>

<svg xmlns="http://www.w3.org/2000/svg" width="283" height="47" fill="none" viewBox="0 0 283 47"><path fill="#fff" d="M85.24 0c19.065 0 29.081 8.014 29.081 23.395s-10.017 23.393-29.08 23.393c-19.065 0-29.017-8.013-29.017-23.393S66.176 0 85.24 0m133.166 0c-9.196 13.166-9.25 33.575 0 46.788h-6.215c-9.252-13.213-9.198-33.622 0-46.788zm56.976 0c9.195 13.166 9.249 33.575 0 46.788h-6.215c9.252-13.213 9.198-33.622 0-46.788zm-31.596.064c12.886 0 23.33 10.446 23.33 23.33 0 12.885-10.446 23.33-23.33 23.33s-23.33-10.445-23.33-23.33S230.902.065 243.786.065M28.5 33.347 40.262.775h16.091L38.518 46.013h-20.68L0 .775h16.544zm107.277 12.666h-15.509V.775h15.509zM172.075.775c15.704 0 24.688 7.11 24.688 22.62s-9.049 22.618-24.752 22.618h-28.37V.775zm85.923 12.82a1.134 1.134 0 0 0-1.915-.261l-20.181 24.75a1.134 1.134 0 0 0 .461 1.768q3.134 1.252 7.423 1.25c10.588 0 15.943-5.687 15.943-17.707 0-3.949-.579-7.207-1.731-9.8M85.24 11.115c-8.982 0-13.183 3.878-13.183 12.28 0 8.4 4.2 12.213 13.183 12.213s13.184-3.748 13.184-12.213-4.2-12.28-13.184-12.28m73.91 23.912h10.728c7.367 0 10.986-3.167 10.986-11.632s-3.619-11.633-10.986-11.633H159.15zm84.636-29.275c-10.648 0-15.943 5.687-15.943 17.643 0 3.963.578 7.238 1.732 9.846.343.776 1.381.92 1.915.263l20.145-24.751a1.134 1.134 0 0 0-.464-1.77c-2.083-.825-4.546-1.231-7.385-1.231"/></svg>
